resources/lib/oojs-ui/themes/mediawiki/images/icons/article-ltr.svg

<?xml version="1.0" encoding="utf-8"?>
<svg xmlns="http://www.w3.org/2000/svg" width="24" height="24" viewBox="0 0 24 24">
    <g>
        <path d="M12 10h4v-5h-4v5zm-5 2h9v-1h-9v1zm0 2h9v-1h-9v1zm0 2h9v-1h-9v1zm4-9h-4v1h4v-1zm0 2h-4v1h4v-1zm0-4h-4v1h4v-1zm-6-2h13v16h-10c-1.7 0-3-1.3-3-3v-13z"/>
    </g>
</svg>

<?xml version="1.0" encoding="utf-8"?>
<svg xmlns="http://www.w3.org/2000/svg" width="24" height="24" viewBox="0 0 24 24">
    <path d="M12 10h4V5h-4v5zm-5 2h9v-1H7v1zm0 2h9v-1H7v1zm0 2h9v-1H7v1zm4-9H7v1h4V7zm0 2H7v1h4V9zm0-4H7v1h4V5zM5 3h13v16H8c-1.7 0-3-1.3-3-3V3z"/>
</svg>
